X:119
T:Paddy Whack #1
C:Joe Buchanan's Scottish Tome - Page 230.3
I:230 3
Z:Carl Allison
R:Jig
L:1/8
M:4/8
K:G
z G | GBd gfg | edc cBA | GBd efg | fdd def |
gbg afd | cde dBG | GAB cAd | BGG G2 :|
d | BGB c2 e | dBG A2 G | GBd efg | fdd def |
gbg afd | cde dBG | GAB cAd | BGG G2 :|

